public/icons/logo.svg

<svg xmlns="http://www.w3.org/2000/svg" width="35" height="35" viewBox="0 0 35 35" fill="none">
  <path d="M7.92455 28.1577C6.9034 27.1219 6.9034 25.4426 7.92455 24.4069L9.74872 22.5566L15.2968 28.349L11.8263 29.2499L7.92455 28.1577Z" fill="url(#paint0_linear_3363_47878)"/>
  <path d="M0.478784 20.807C-0.159595 20.1595 -0.159595 19.1095 0.478784 18.462L3.05024 15.8538L8.35746 21.2368L0.478784 20.807Z" fill="url(#paint1_linear_3363_47878)"/>
  <path d="M33.9823 19.3653L20.0488 33.4978C18.9899 34.5683 17.2778 34.5683 16.2192 33.4978L2.28571 19.3653C1.23028 18.2912 1.23028 16.5547 2.28571 15.4809L16.2192 1.34838C17.2782 0.277877 18.9902 0.277877 20.0488 1.34838L33.9823 15.4809C35.0378 16.5547 35.0378 18.2912 33.9823 19.3653Z" fill="url(#paint2_linear_3363_47878)"/>
  <path opacity="0.28" d="M33.1121 15.5819C30.465 16.8791 26.4736 17.4055 20.7977 14.8356C13.6263 11.5929 6.80912 13.9675 2.40869 16.4779C2.50158 16.2966 2.6217 16.1257 2.7732 15.9724L16.7032 1.83983C17.0847 1.45614 17.5936 1.24367 18.1334 1.24367C18.6731 1.24367 19.1817 1.45647 19.5636 1.84341L33.1121 15.5819Z" fill="url(#paint3_linear_3363_47878)"/>
  <g opacity="0.44">
    <path d="M27.9271 18.8246L25.9021 26.4994L24.74 24.5225L21.1442 28.1732C20.3053 29.0205 19.3806 29.7528 18.387 30.3525C17.0942 31.1371 15.647 31.4961 14.2133 31.465L11.7896 29.0065C14.4468 28.8564 16.9187 27.7408 18.8165 25.8162L22.4812 22.1027L20.2121 20.7255L27.9271 18.8246Z" fill="url(#paint4_linear_3363_47878)"/>
    <path d="M23.8615 9.68913L21.4825 18.7064L20.1141 16.3841L15.8889 20.6661C14.9642 21.604 13.9466 22.4201 12.8636 23.1001C11.1653 24.1635 9.24376 24.6206 7.35265 24.5052L4.55762 21.6703C7.78923 21.5693 10.8661 20.2268 13.1589 17.901L17.4562 13.5387L14.7954 11.9243L23.8615 9.68913Z" fill="url(#paint5_linear_3363_47878)"/>
  </g>
  <path d="M27.2423 17.9549L25.2173 25.6297L24.052 23.6527L20.4562 27.2999C19.6179 28.1501 18.6929 28.8798 17.7012 29.4812C14.556 31.3879 10.516 30.7856 7.92529 28.1576H10.4794C13.3706 28.1576 16.0865 27.0172 18.132 24.9425L21.7931 21.2323L19.5276 19.8551L27.2423 17.9549Z" fill="url(#paint6_linear_3363_47878)"/>
  <path d="M23.1751 8.81549L20.7961 17.8363L19.4246 15.5104L15.1993 19.796C14.2746 20.7339 13.2599 21.5478 12.175 22.2287C8.43695 24.5757 3.58713 23.9601 0.478516 20.807H3.47982C6.85205 20.807 10.0862 19.4484 12.4706 17.0296L16.7701 12.6683L14.1093 11.054L23.1751 8.81549Z" fill="url(#paint7_linear_3363_47878)"/>
  <g opacity="0.5">
    <path opacity="0.78" d="M26.7596 18.4309L25.388 23.6333C24.3668 22.8662 23.2394 22.1479 22.0154 21.4994L22.3489 21.1648L20.4238 19.9932L26.7596 18.4309Z" fill="url(#paint8_linear_3363_47878)"/>
    <path opacity="0.78" d="M22.6932 9.29504L20.6753 16.9487L19.4927 14.9471L15.5359 18.964C14.5938 18.706 13.6246 18.4864 12.631 18.3048C12.3389 18.2525 12.0464 18.2038 11.7578 18.1583C12.0877 17.8828 12.4077 17.5865 12.7136 17.2762L17.327 12.6001L15.0064 11.1914L22.6932 9.29504Z" fill="url(#paint9_linear_3363_47878)"/>
  </g>
  <defs>
    <linearGradient id="paint0_linear_3363_47878" x1="7.15866" y1="25.9031" x2="15.2969" y2="25.9031" gradientUnits="userSpaceOnUse">
      <stop stop-color="#B0D1FF"/>
      <stop offset="1" stop-color="#4F93FF"/>
    </linearGradient>
    <linearGradient id="paint1_linear_3363_47878" x1="-0.000112109" y1="18.5454" x2="8.35733" y2="18.5454" gradientUnits="userSpaceOnUse">
      <stop stop-color="#B0D1FF"/>
      <stop offset="1" stop-color="#4F93FF"/>
    </linearGradient>
    <linearGradient id="paint2_linear_3363_47878" x1="18.0062" y1="31.0963" x2="18.3599" y2="-5.68908" gradientUnits="userSpaceOnUse">
      <stop stop-color="#0058D4"/>
      <stop offset="1" stop-color="#00245B"/>
    </linearGradient>
    <linearGradient id="paint3_linear_3363_47878" x1="17.8538" y1="8.0426" x2="17.7359" y2="17.8641" gradientUnits="userSpaceOnUse">
      <stop/>
      <stop offset="1" stop-color="#B0D1FF"/>
    </linearGradient>
    <linearGradient id="paint4_linear_3363_47878" x1="11.7902" y1="25.1458" x2="27.9273" y2="25.1458" gradientUnits="userSpaceOnUse">
      <stop stop-color="#001334"/>
      <stop offset="1" stop-color="#00245B"/>
    </linearGradient>
    <linearGradient id="paint5_linear_3363_47878" x1="4.558" y1="17.1057" x2="23.8613" y2="17.1057" gradientUnits="userSpaceOnUse">
      <stop stop-color="#001334"/>
      <stop offset="1" stop-color="#00245B"/>
    </linearGradient>
    <linearGradient id="paint6_linear_3363_47878" x1="7.92526" y1="24.2753" x2="27.2424" y2="24.2753" gradientUnits="userSpaceOnUse">
      <stop stop-color="#0065FF"/>
      <stop offset="1" stop-color="#00C4F7"/>
    </linearGradient>
    <linearGradient id="paint7_linear_3363_47878" x1="0.478772" y1="16.2332" x2="23.1752" y2="16.2332" gradientUnits="userSpaceOnUse">
      <stop stop-color="#0065FF"/>
      <stop offset="1" stop-color="#00C4F7"/>
    </linearGradient>
    <linearGradient id="paint8_linear_3363_47878" x1="24.7575" y1="18.6926" x2="20.9552" y2="24.9214" gradientUnits="userSpaceOnUse">
      <stop/>
      <stop offset="1" stop-color="#B0D1FF"/>
    </linearGradient>
    <linearGradient id="paint9_linear_3363_47878" x1="17.4127" y1="14.6288" x2="12.9226" y2="20.3205" gradientUnits="userSpaceOnUse">
      <stop/>
      <stop offset="1" stop-color="#B0D1FF"/>
    </linearGradient>
  </defs>
</svg>

<?xml version="1.0" encoding="utf-8"?>
<!-- Generator: Adobe Illustrator 28.2.0, SVG Export Plug-In . SVG Version: 6.00 Build 0)  -->
<svg version="1.1" id="Layer_1" xmlns="http://www.w3.org/2000/svg" xmlns:xlink="http://www.w3.org/1999/xlink" x="0px" y="0px"
	 viewBox="0 0 35 35" style="enable-background:new 0 0 35 35;" xml:space="preserve">
<style type="text/css">
	.st0{display:none;fill:url(#SVGID_1_);}
	.st1{display:none;fill:url(#SVGID_00000130617531126702509190000015867250710377861819_);}
	.st2{display:none;fill:url(#SVGID_00000047770053487238248740000005655342020880181901_);}
	.st3{display:none;opacity:0.28;fill:url(#SVGID_00000086674717334997958420000008733478732926278530_);enable-background:new    ;}
	.st4{display:none;opacity:0.44;}
	.st5{display:inline;fill:url(#SVGID_00000026150392838570984300000011079258206108231814_);}
	.st6{display:inline;fill:url(#SVGID_00000059278795188959644160000003548987423779671214_);}
	.st7{display:none;fill:url(#SVGID_00000178206512614402431430000013831385740841473192_);}
	.st8{display:none;fill:url(#SVGID_00000050664144885562460240000008927234158729829025_);}
	.st9{display:none;opacity:0.5;}
	
		.st10{display:inline;opacity:0.78;fill:url(#SVGID_00000039828134291977002340000000444737243319633045_);enable-background:new    ;}
	
		.st11{display:inline;opacity:0.78;fill:url(#SVGID_00000049204443884766496480000012140625011662022299_);enable-background:new    ;}
	.st12{fill:none;}
	.st13{fill:#F0B90C;}
</style>
<linearGradient id="SVGID_1_" gradientUnits="userSpaceOnUse" x1="7.1587" y1="10.0967" x2="15.2968" y2="10.0967" gradientTransform="matrix(1 0 0 -1 0 36)">
	<stop  offset="0" style="stop-color:#B0D1FF"/>
	<stop  offset="1" style="stop-color:#4F93FF"/>
</linearGradient>
<path class="st0" d="M7.9,28.2c-1-1-1-2.7,0-3.8l1.8-1.9l5.5,5.8l-3.5,0.9L7.9,28.2z"/>
<linearGradient id="SVGID_00000034803828917682734160000011348110710428472718_" gradientUnits="userSpaceOnUse" x1="-2.495944e-07" y1="17.4547" x2="8.3575" y2="17.4547" gradientTransform="matrix(1 0 0 -1 0 36)">
	<stop  offset="0" style="stop-color:#B0D1FF"/>
	<stop  offset="1" style="stop-color:#4F93FF"/>
</linearGradient>
<path style="display:none;fill:url(#SVGID_00000034803828917682734160000011348110710428472718_);" d="M0.5,20.8
	c-0.6-0.6-0.6-1.7,0-2.3l2.6-2.6l5.3,5.4L0.5,20.8z"/>
<linearGradient id="SVGID_00000026148942285269670300000003041079616891207831_" gradientUnits="userSpaceOnUse" x1="18.0026" y1="4.9037" x2="18.3563" y2="41.6891" gradientTransform="matrix(1 0 0 -1 0 36)">
	<stop  offset="0" style="stop-color:#0058D4"/>
	<stop  offset="1" style="stop-color:#00245B"/>
</linearGradient>
<path style="display:none;fill:url(#SVGID_00000026148942285269670300000003041079616891207831_);" d="M34,19.4L20,33.5
	c-1.1,1.1-2.8,1.1-3.8,0L2.3,19.4c-1.1-1.1-1.1-2.8,0-3.9L16.2,1.3c1.1-1.1,2.8-1.1,3.8,0L34,15.5C35,16.6,35,18.3,34,19.4z"/>
<linearGradient id="SVGID_00000078026648748127872470000014998853492017134522_" gradientUnits="userSpaceOnUse" x1="17.8563" y1="27.9574" x2="17.7384" y2="18.1359" gradientTransform="matrix(1 0 0 -1 0 36)">
	<stop  offset="0" style="stop-color:#000000"/>
	<stop  offset="1" style="stop-color:#B0D1FF"/>
</linearGradient>
<path style="display:none;opacity:0.28;fill:url(#SVGID_00000078026648748127872470000014998853492017134522_);enable-background:new    ;" d="
	M33.1,15.6c-2.6,1.3-6.6,1.8-12.3-0.7c-7.2-3.2-14-0.9-18.4,1.6c0.1-0.2,0.2-0.4,0.4-0.5L16.7,1.8c0.4-0.4,0.9-0.6,1.4-0.6
	c0.5,0,1,0.2,1.4,0.6L33.1,15.6z"/>
<g class="st4">
	
		<linearGradient id="SVGID_00000029009917233963050540000008808780622147251587_" gradientUnits="userSpaceOnUse" x1="11.7896" y1="10.8543" x2="27.9271" y2="10.8543" gradientTransform="matrix(1 0 0 -1 0 36)">
		<stop  offset="0" style="stop-color:#001334"/>
		<stop  offset="1" style="stop-color:#00245B"/>
	</linearGradient>
	<path style="display:inline;fill:url(#SVGID_00000029009917233963050540000008808780622147251587_);" d="M27.9,18.8l-2,7.7l-1.2-2
		l-3.6,3.7c-0.8,0.8-1.8,1.6-2.8,2.2c-1.3,0.8-2.7,1.1-4.2,1.1L11.8,29c2.7-0.2,5.1-1.3,7-3.2l3.7-3.7l-2.3-1.4L27.9,18.8z"/>
	
		<linearGradient id="SVGID_00000013894026887895437290000017999799999255396740_" gradientUnits="userSpaceOnUse" x1="4.5576" y1="18.8941" x2="23.8615" y2="18.8941" gradientTransform="matrix(1 0 0 -1 0 36)">
		<stop  offset="0" style="stop-color:#001334"/>
		<stop  offset="1" style="stop-color:#00245B"/>
	</linearGradient>
	<path style="display:inline;fill:url(#SVGID_00000013894026887895437290000017999799999255396740_);" d="M23.9,9.7l-2.4,9l-1.4-2.3
		l-4.2,4.3c-0.9,0.9-1.9,1.8-3,2.4c-1.7,1.1-3.6,1.5-5.5,1.4l-2.8-2.8c3.2-0.1,6.3-1.4,8.6-3.8l4.3-4.4l-2.7-1.6L23.9,9.7z"/>
</g>
<linearGradient id="SVGID_00000066516748819678550460000017638951686623006363_" gradientUnits="userSpaceOnUse" x1="7.9253" y1="11.7245" x2="27.2423" y2="11.7245" gradientTransform="matrix(1 0 0 -1 0 36)">
	<stop  offset="0" style="stop-color:#0065FF"/>
	<stop  offset="1" style="stop-color:#00C4F7"/>
</linearGradient>
<path style="display:none;fill:url(#SVGID_00000066516748819678550460000017638951686623006363_);" d="M27.2,18l-2,7.7l-1.2-2
	l-3.6,3.6c-0.8,0.9-1.8,1.6-2.8,2.2c-3.1,1.9-7.2,1.3-9.8-1.3h2.6c2.9,0,5.6-1.1,7.7-3.2l3.7-3.7l-2.3-1.4L27.2,18z"/>
<linearGradient id="SVGID_00000028311421472574446980000014817769211067219605_" gradientUnits="userSpaceOnUse" x1="0.4785" y1="19.7669" x2="23.1751" y2="19.7669" gradientTransform="matrix(1 0 0 -1 0 36)">
	<stop  offset="0" style="stop-color:#0065FF"/>
	<stop  offset="1" style="stop-color:#00C4F7"/>
</linearGradient>
<path style="display:none;fill:url(#SVGID_00000028311421472574446980000014817769211067219605_);" d="M23.2,8.8l-2.4,9l-1.4-2.3
	l-4.2,4.3c-0.9,0.9-1.9,1.8-3,2.4C8.4,24.6,3.6,24,0.5,20.8h3c3.4,0,6.6-1.4,9-3.8l4.3-4.4l-2.7-1.6L23.2,8.8z"/>
<g class="st9">
	
		<linearGradient id="SVGID_00000120552914666498201200000008974779089694683044_" gradientUnits="userSpaceOnUse" x1="24.7964" y1="17.2837" x2="20.9941" y2="11.0549" gradientTransform="matrix(1 0 0 -1 0 36)">
		<stop  offset="0" style="stop-color:#000000"/>
		<stop  offset="1" style="stop-color:#B0D1FF"/>
	</linearGradient>
	
		<path style="display:inline;opacity:0.78;fill:url(#SVGID_00000120552914666498201200000008974779089694683044_);enable-background:new    ;" d="
		M26.8,18.4l-1.4,5.2c-1-0.8-2.1-1.5-3.4-2.1l0.3-0.3L20.4,20L26.8,18.4z"/>
	
		<linearGradient id="SVGID_00000168806955093155596730000014492149805829381305_" gradientUnits="userSpaceOnUse" x1="17.4049" y1="21.3773" x2="12.9148" y2="15.6856" gradientTransform="matrix(1 0 0 -1 0 36)">
		<stop  offset="0" style="stop-color:#000000"/>
		<stop  offset="1" style="stop-color:#B0D1FF"/>
	</linearGradient>
	
		<path style="display:inline;opacity:0.78;fill:url(#SVGID_00000168806955093155596730000014492149805829381305_);enable-background:new    ;" d="
		M22.7,9.3l-2,7.7l-1.2-2l-4,4c-0.9-0.3-1.9-0.5-2.9-0.7c-0.3-0.1-0.6-0.1-0.9-0.1c0.3-0.3,0.6-0.6,1-0.9l4.6-4.7L15,11.2L22.7,9.3z
		"/>
</g>
<rect x="-0.2" class="st12" width="35" height="35"/>
<path d="M30,35H5c-2.8,0-5-2.2-5-5V5c0-2.8,2.2-5,5-5h25c2.8,0,5,2.2,5,5v25C35,32.8,32.8,35,30,35z"/>
<g>
	<g>
		<path class="st13" d="M31.5,29.7L31.5,29.7L31.5,29.7L31.5,29.7L31.5,29.7L31.5,29.7L31.5,29.7L31.5,29.7c0,0-11.2-10.9-11.2-10.9
			c0,0,0-0.1,0-0.1c0.1-0.7-0.1-1.4-0.6-2c-0.4-0.5-1-0.9-1.6-1c-0.2,0-0.5-0.1-0.7,0c-1.2,0.1-2.2,0.9-2.5,1.9
			c-0.1,0.3-0.1,0.6-0.1,0.9c0,0.1,0,0.2,0,0.2c0,0,0,0.1,0,0.1c0,0,0,0-0.1,0.1c0.1,0.2-11.1,10.8-11.1,10.8l0,0l0,0l0,0l0,0l0,0
			l0,0l0,0l0,0l0,0l14-24.3l0,0l0,0l0,0l0,0l0,0l0,0l0,0l0,0l0,0L31.5,29.7L31.5,29.7L31.5,29.7L31.5,29.7z"/>
		<path class="st13" d="M15.4,29.7L15.4,29.7L15.4,29.7L15.4,29.7L15.4,29.7L15.4,29.7L15.4,29.7L15.4,29.7L15.4,29.7L15.4,29.7
			L15.4,29.7L15.4,29.7L15.4,29.7L15.4,29.7l1.3-8.4l0,0c0,0,0,0,0,0c0,0,0.1,0,0.1,0c0.3,0.1,0.5,0.1,0.8,0c0.1,0,0.2,0,0.4-0.1
			c0,0,0.1,0,0.1,0c0,0,0,0,0,0l0,0l1.3,8.4l0,0l0,0l0,0l0,0l0,0l0,0l0,0l0,0l0,0l0,0l0,0l0,0l0,0l0,0l0,0l0,0l0,0l0,0L15.4,29.7
			L15.4,29.7z"/>
		<path class="st13" d="M17.5,19.9c-0.7,0-1.4-0.6-1.4-1.4c0-0.8,0.7-1.4,1.4-1.4c0.7,0,1.4,0.6,1.4,1.4
			C18.9,19.3,18.2,19.9,17.5,19.9z"/>
	</g>
</g>
</svg>
